X:1
T:Title
%%score { 1 | 2 }
L:1/8
M:4/4
K:G
V:1 treble nm="Grand Piano"
V:2 bass 
V:1
 z4 z2[Q:1/4=100] D2 | GFGA B2 [FA]2 | [EG]6 [DF]2 | [CE]3 [DF] [EG]2 [CE]2 | [CE]2 [B,D]4 [B,D]2 | %5
 GFGA B2 c2 | d6 B2 | A3 G F2 G2 |[M:3/4] [GB]2 [FA]4 |[M:1/4] B2 |[M:4/4] d e2 d B2 G2 | %11
 [EA] [EB]2 [EA] [CE]3 [EG] | F2 E2 D2 c2 |[M:3/4] B2 d4 |[M:1/4] B2 |[M:4/4] d e2 d B2 G2 | %16
 [EA] [EB]2 [EA] [CE]3 [EG] | F2 E2 D2 B2 |[M:3/4] A2 [B,G]4 |] %19
V:2
 z4 z2 [G,B,]2 | [G,B,D][G,A,D][G,B,D][G,CD] [G,DG]2 [D,C]2 | [E,B,]6 [B,,G,]2 | %3
 [C,G,]3 [C,G,] [C,C]2 [C,G,]2 | [G,,G,]2 [G,,G,]4 [G,,G,]2 | %5
 [G,B,D][G,A,D][G,B,D][G,CD] [G,DG]2 [A,DF]2 | [B,DG]6 [G,DG]2 | [A,^CE]3 [A,CE] [A,CE]2 [A,CE]2 | %8
[M:3/4] [D,D]2 [D,D]4 |[M:1/4][K:treble] [G,DG]2 | %10
[M:4/4] [G,B,G] [G,CG]2 [G,B,G] [G,DG]2[K:bass] [G,B,D]2 | [C,C] [C,C]2 [C,C] [C,G,]3 [C,C] | %12
 [D,A,D]2 [D,G,C]2 [D,F,C]2 [D,F,E]2 |[M:3/4][K:treble] [G,D]2 [G,B,G]4 |[M:1/4] [G,DG]2 | %15
[M:4/4] [G,B,G] [G,CG]2 [G,B,G] [G,DG]2[K:bass] [G,B,D]2 | [C,C] [C,C]2 [C,C] [C,G,]3 [C,C] | %17
 [D,A,D]2 [D,G,C]2 [D,F,C]2 [D,G,D]2 |[M:3/4] [D,F,C]2 [G,,G,]4 |] %19

